X:1
T:Title
%%score ( 1 2 ) ( 3 4 5 )
L:1/8
Q:1/4=112
M:4/4
K:Eb
V:1 treble nm="Grand Piano, Staff 1"
V:2 treble 
V:3 bass nm="Choir Pad, Knightsbridge, 87.87 D"
V:4 bass 
V:5 bass 
V:1
 E3 [DF] [EG]2 [EB]2 | [Ec]2 [Ee]2 [Ec]2 [EB]2 | [Ec]3 [EB] A-[DA] [EG]2 | F2 [EF]2 [DF]4 | %4
w: By~J.~Baden~Powell,~1885 * * *||||
 E3 [DF] [EG]2 [EB]2 | [Ec]2 [Ee]2 [Ec]2 [EB]2 | [Ec]3 [GB] [F=A]2 [FB]2 | [EB]2 [E=A]2 [DB]4 | %8
w: ||||
 [Ee]3 B G2 E2 | G2 [FB]2 [Ee]2 [Gd]2 | [Cc]3 G E2 C2 | E2 [DG]2 c2- [=Ec]2 | %12
w: ||||
 [Ff]3 [Fe] [Fd]2 [FB]2 | [Gc]2 [Fd]2 [Ee]2 [Ed]2 | [Ec]3 [EB] A-[DA] [EG]2 | [EF]2 [DF]2 E4- | %16
w: ||||
 E4 z4 |] %17
w: |
V:2
 x8 | x8 | z4 .E2 z2 | x8 | x8 | x8 | x8 | x8 | x8 | x8 | x8 | z4 E2 z2 | x8 | x8 | z4 .E2 z2 | %15
 x8 | x8 |] %17
V:3
 [E,G,]3 [B,,B,] [E,B,]2 [G,B,]2 | A,2 [C,A,]2 [E,A,]2 [E,G,]2 | A,3 [G,B,] [F,B,]2 [E,B,]2 | %3
 [D,B,]2 [C,=A,]2 [B,,B,]4 | [E,G,]3 [B,,B,] [E,B,]2 [G,B,]2 | A,2 [C,A,]2 [E,A,]2 [E,G,]2 | %6
 [E,G,]3 [E,C] [E,C]2 [D,B,]2 | [C,C]2 [F,C]2 [B,,B,]4 | [E,E]3 B, G,2 E,2 | %9
 [E,B,]2 [D,B,]2 [C,C]2 [G,=B,]2 | C3 G, E,2 C,2 | C2 [B,D]2 [A,C]2 [G,B,]2 | %12
 [F,=A,]3 [A,C] B,2 [B,D]2 | [B,E]2 [B,C]2 [G,B,]2 [G,B,]2 | A,3 [G,B,] [F,B,]2 [E,B,]2 | B,4 z4 | %16
 z8 |] %17
V:4
 x8 | x8 | x8 | x8 | x8 | x8 | x8 | x8 | x8 | x8 | x8 | x8 | x8 | x8 | x8 | B,,2 z A, [E,G,]4- | %16
 [E,G,]4 z4 |] %17
V:5
 x8 | x8 | x8 | x8 | x8 | x8 | x8 | x8 | x8 | x8 | x8 | x8 | x8 | x8 | x8 | z2 B,,2 z4 | x8 |] %17

